X:370
T: Burns'
S: "First Collection of Traditional Irish Music" (M.Mulvihill)
Z: B.Black
L: 1/8
M: 4/4
R: reel
K: G
A|Bdde gdea|gded BAAc|Bdde gded|BGAG EGGA|
Bddg egde|gded BAAc|Bdde gded|BGAG EG G2 ||
egdg bgag|egdg eaag|egdg bgag|edef (3ggg g2|
egdg bgag|egdg eaag|bgaf gded|BGAG EG G2 ||
